;FLAVOR:Marlin
;TIME:766
;Filament used: 0.389658m
;Layer height: 0.2
;MINX:82.933
;MINY:95.846
;MINZ:0.2
;MAXX:138.898
;MAXY:132.82
;MAXZ:34
;Generated with Cura_SteamEngine 5.2.1
M140 S50
M105
M190 S50
M104 S200
M105
M109 S200
M82 ;absolute extrusion mode
; Ender 3 Custom Start G-code
G92 E0 ; Reset Extruder
G28 
G29;Home
G1 Z2.0 F3000 ; Move Z Axis up little to prevent scratching of Heat Bed
G1 X0.1 Y20 Z0.3 F5000.0 ; Move to start position
G1 X0.1 Y200.0 Z0.3 F1500.0 E15 ; Draw the first line
G1 X0.4 Y200.0 Z0.3 F5000.0 ; Move to side a little
G1 X0.4 Y20 Z0.3 F1500.0 E30 ; Draw the second line
G92 E0 ; Reset Extruder
G1 Z2.0 F3000 ; Move Z Axis up little to prevent scratching of Heat Bed
G1 X5 Y20 Z0.3 F5000.0 ; Move over to prevent blob squish
G92 E0
G92 E0
G1 F2700 E-5
;LAYER_COUNT:170
;LAYER:0
M107
G0 F6000 X88.245 Y102.43 Z0.2
;TYPE:SKIRT
G1 F2700 E0
G1 F1200 X89.032 Y101.77 E0.03416
G1 X89.456 Y101.447 E0.05189
G1 X90.305 Y100.861 E0.0862
G1 X90.618 Y100.666 E0.09847
G1 X91.516 Y100.163 E0.1327
G1 X92.034 Y99.904 E0.15196
G1 X92.959 Y99.494 E0.18562
G1 X93.29 Y99.365 E0.19743
G1 X94.289 Y99.03 E0.23248
G1 X94.911 Y98.854 E0.25398
G1 X95.413 Y98.724 E0.27122
G1 X96.062 Y98.575 E0.29337
G1 X106.361 Y96.384 E0.64358
G1 X107.679 Y96.127 E0.68825
G1 X108.276 Y96.028 E0.70837
G1 X108.565 Y95.988 E0.71808
G1 X109.445 Y95.902 E0.74749
G1 X110.127 Y95.863 E0.77021
G1 X110.907 Y95.846 E0.79615
G1 X111.412 Y95.853 E0.81295
G1 X112.192 Y95.892 E0.83893
G1 X112.745 Y95.939 E0.85739
G1 X113.499 Y96.029 E0.88264
G1 X114.478 Y96.189 E0.91564
G1 X115.609 Y96.411 E0.95397
G1 X125.514 Y98.52 E1.2908
G1 X126.643 Y98.777 E1.32931
G1 X127.779 Y99.101 E1.3686
G1 X128.374 Y99.306 E1.38953
G1 X129.328 Y99.685 E1.42367
G1 X129.688 Y99.848 E1.43682
G1 X130.606 Y100.317 E1.4711
G1 X131.07 Y100.582 E1.48888
G1 X131.96 Y101.148 E1.52396
G1 X132.29 Y101.381 E1.53739
G1 X133.079 Y101.994 E1.57062
G1 X133.491 Y102.345 E1.58863
G1 X134.284 Y103.091 E1.62484
G1 X134.589 Y103.408 E1.63947
G1 X135.241 Y104.151 E1.67235
G1 X135.505 Y104.48 E1.68638
G1 X136.111 Y105.311 E1.72059
G1 X136.399 Y105.748 E1.73799
G1 X136.93 Y106.644 E1.77263
G1 X137.137 Y107.034 E1.78732
G1 X137.568 Y107.944 E1.82081
G1 X137.753 Y108.386 E1.83675
G1 X138.12 Y109.398 E1.87255
G1 X138.248 Y109.814 E1.88703
G1 X138.497 Y110.78 E1.92021
G1 X138.606 Y111.297 E1.93778
G1 X138.774 Y112.331 E1.97262
G1 X138.822 Y112.756 E1.98685
G1 X138.889 Y113.78 E2.02098
G1 X138.898 Y114.249 E2.03658
G1 X138.868 Y115.297 E2.07145
G1 X138.831 Y115.782 E2.08763
G1 X138.711 Y116.77 E2.12073
G1 X138.639 Y117.198 E2.13517
G1 X138.411 Y118.24 E2.17064
G1 X138.279 Y118.729 E2.18749
G1 X137.963 Y119.714 E2.2219
G1 X137.8 Y120.15 E2.23738
G1 X137.4 Y121.085 E2.2712
G1 X137.212 Y121.474 E2.28557
G1 X136.721 Y122.379 E2.31982
G1 X136.464 Y122.804 E2.33634
G1 X135.885 Y123.666 E2.37087
G1 X135.609 Y124.038 E2.38628
G1 X134.939 Y124.857 E2.42147
G1 X134.622 Y125.208 E2.4372
G1 X133.916 Y125.921 E2.47058
G1 X133.594 Y126.218 E2.48515
G1 X132.804 Y126.88 E2.51943
G1 X132.396 Y127.191 E2.53649
G1 X131.549 Y127.776 E2.57073
G1 X131.169 Y128.013 E2.58563
G1 X130.267 Y128.519 E2.62002
G1 X129.879 Y128.713 E2.63445
G1 X128.962 Y129.12 E2.66782
G1 X128.473 Y129.311 E2.68528
G1 X127.438 Y129.657 E2.72158
G1 X126.543 Y129.898 E2.75241
G1 X125.78 Y130.076 E2.77847
G1 X115.426 Y132.279 E3.13055
G1 X114.148 Y132.527 E3.17385
G1 X113.349 Y132.655 E3.20076
G1 X112.451 Y132.746 E3.23078
G1 X111.607 Y132.797 E3.25891
G1 X110.777 Y132.82 E3.28652
G1 X109.819 Y132.777 E3.31842
G1 X109.128 Y132.719 E3.34148
G1 X108.377 Y132.63 E3.36663
G1 X107.366 Y132.466 E3.4007
G1 X106.186 Y132.235 E3.44069
G1 X96.259 Y130.12 E3.77828
G1 X95.316 Y129.906 E3.81044
G1 X94.595 Y129.719 E3.83521
G1 X93.967 Y129.524 E3.85708
G1 X93.498 Y129.363 E3.87358
G1 X92.527 Y128.977 E3.90833
G1 X92.108 Y128.787 E3.92363
G1 X91.168 Y128.305 E3.95877
G1 X90.728 Y128.052 E3.97565
G1 X89.871 Y127.505 E4.00946
G1 X89.535 Y127.268 E4.02314
G1 X88.746 Y126.656 E4.05635
G1 X88.377 Y126.342 E4.07246
G1 X87.6 Y125.613 E4.1079
G1 X87.274 Y125.276 E4.1235
G1 X86.586 Y124.494 E4.15814
G1 X86.264 Y124.091 E4.1753
G1 X85.665 Y123.266 E4.20921
G1 X85.458 Y122.951 E4.22174
G1 X84.942 Y122.081 E4.25539
G1 X84.681 Y121.591 E4.27385
G1 X84.23 Y120.635 E4.30901
G1 X84.074 Y120.259 E4.32255
G1 X83.717 Y119.267 E4.35761
G1 X83.569 Y118.784 E4.37441
G1 X83.323 Y117.831 E4.40715
G1 X83.234 Y117.409 E4.4215
G1 X83.067 Y116.38 E4.45617
G1 X83.01 Y115.878 E4.47297
G1 X82.942 Y114.86 E4.50691
G1 X82.933 Y114.416 E4.52168
G1 X82.962 Y113.366 E4.55661
G1 X82.997 Y112.902 E4.57209
G1 X83.123 Y111.875 E4.6065
G1 X83.208 Y111.378 E4.62327
G1 X83.432 Y110.363 E4.65785
G1 X83.539 Y109.967 E4.67149
G1 X83.851 Y108.994 E4.70547
G1 X84.034 Y108.503 E4.7229
G1 X84.437 Y107.558 E4.75707
G1 X84.626 Y107.167 E4.77152
G1 X85.119 Y106.258 E4.80591
G1 X85.372 Y105.84 E4.82216
G1 X85.936 Y105 E4.85581
G1 X86.199 Y104.644 E4.87053
G1 X86.888 Y103.801 E4.90675
G1 X87.21 Y103.445 E4.92271
G1 X87.915 Y102.734 E4.95601
G1 X88.245 Y102.43 E4.97094
G0 F6000 X88.516 Y102.724
G1 F1200 X89.275 Y102.088 E5.00387
G1 X89.699 Y101.765 E5.0216
G1 X90.517 Y101.2 E5.05467
G1 X90.83 Y101.005 E5.06693
G1 X91.695 Y100.521 E5.0999
G1 X92.213 Y100.262 E5.11916
G1 X93.104 Y99.867 E5.15158
G1 X93.435 Y99.738 E5.16339
G1 X94.398 Y99.414 E5.19719
G1 X95.02 Y99.238 E5.21869
G1 X95.504 Y99.114 E5.23531
G1 X96.146 Y98.966 E5.25722
G1 X106.259 Y96.813 E5.60112
G1 X107.755 Y96.52 E5.65182
G1 X108.331 Y96.424 E5.67124
G1 X108.62 Y96.384 E5.68094
G1 X109.468 Y96.301 E5.70928
G1 X110.15 Y96.262 E5.732
G1 X110.902 Y96.246 E5.75702
G1 X111.407 Y96.253 E5.77382
G1 X112.158 Y96.29 E5.79883
G1 X112.711 Y96.337 E5.81729
G1 X113.437 Y96.424 E5.84161
G1 X114.402 Y96.582 E5.87413
G1 X115.525 Y96.802 E5.91219
G1 X125.43 Y98.911 E6.24902
G1 X126.554 Y99.167 E6.28736
G1 X127.649 Y99.479 E6.32523
G1 X128.244 Y99.684 E6.34616
G1 X129.163 Y100.05 E6.37906
G1 X129.523 Y100.213 E6.39221
G1 X130.408 Y100.664 E6.42524
G1 X130.872 Y100.929 E6.44302
G1 X131.729 Y101.475 E6.47681
G1 X132.059 Y101.708 E6.49025
G1 X132.819 Y102.298 E6.52225
G1 X133.231 Y102.649 E6.54025
G1 X133.996 Y103.369 E6.57519
G1 X134.301 Y103.686 E6.58982
G1 X134.929 Y104.401 E6.62147
G1 X135.193 Y104.73 E6.6355
G1 X135.777 Y105.531 E6.66848
G1 X136.065 Y105.968 E6.68588
G1 X136.577 Y106.831 E6.71926
G1 X136.784 Y107.221 E6.73394
G1 X137.199 Y108.098 E6.76621
G1 X137.384 Y108.54 E6.78215
G1 X137.737 Y109.516 E6.81667
G1 X137.865 Y109.932 E6.83115
G1 X138.106 Y110.862 E6.8631
G1 X138.215 Y111.379 E6.88067
G1 X138.376 Y112.376 E6.91426
G1 X138.424 Y112.801 E6.92849
G1 X138.489 Y113.788 E6.96139
G1 X138.498 Y114.257 E6.97699
G1 X138.469 Y115.266 E7.01056
G1 X138.432 Y115.751 E7.02674
G1 X138.316 Y116.703 E7.05864
G1 X138.244 Y117.131 E7.07307
G1 X138.025 Y118.135 E7.10725
G1 X137.893 Y118.624 E7.1241
G1 X137.588 Y119.574 E7.15728
G1 X137.425 Y120.01 E7.17277
G1 X137.04 Y120.91 E7.20532
G1 X136.852 Y121.299 E7.21969
G1 X136.379 Y122.172 E7.25272
G1 X136.122 Y122.597 E7.26924
G1 X135.564 Y123.428 E7.30253
G1 X135.288 Y123.8 E7.31794
G1 X134.642 Y124.589 E7.35185
G1 X134.325 Y124.94 E7.36758
G1 X133.645 Y125.627 E7.39973
G1 X133.323 Y125.924 E7.4143
G1 X132.562 Y126.562 E7.44733
G1 X132.154 Y126.873 E7.46439
G1 X131.337 Y127.437 E7.49741
G1 X130.957 Y127.674 E7.51231
G1 X130.088 Y128.161 E7.54544
G1 X129.7 Y128.355 E7.55987
G1 X128.817 Y128.748 E7.59202
G1 X128.328 Y128.939 E7.60948
G1 X127.33 Y129.272 E7.64447
G1 X126.451 Y129.509 E7.67475
G1 X125.697 Y129.685 E7.7005
G1 X115.539 Y131.848 E8.04593
G1 X114.072 Y132.134 E8.09564
G1 X113.293 Y132.259 E8.12188
G1 X112.427 Y132.347 E8.15084
G1 X111.583 Y132.398 E8.17896
G1 X110.779 Y132.42 E8.20571
G1 X109.852 Y132.379 E8.23657
G1 X109.161 Y132.321 E8.25964
G1 X108.438 Y132.235 E8.28385
G1 X107.443 Y132.074 E8.31738
G1 X106.452 Y131.881 E8.35096
G1 X96.201 Y129.697 E8.69956
G1 X95.405 Y129.516 E8.72671
G1 X94.702 Y129.333 E8.75087
G1 X94.097 Y129.146 E8.77193
G1 X93.628 Y128.985 E8.78843
G1 X92.692 Y128.613 E8.82193
G1 X92.273 Y128.423 E8.83723
G1 X91.367 Y127.958 E8.8711
G1 X90.927 Y127.705 E8.88798
G1 X90.101 Y127.178 E8.92057
G1 X89.765 Y126.941 E8.93424
G1 X89.005 Y126.352 E8.96622
G1 X88.636 Y126.038 E8.98234
G1 X87.887 Y125.335 E9.0165
G1 X87.561 Y124.998 E9.0321
G1 X86.899 Y124.245 E9.06545
G1 X86.577 Y123.842 E9.0826
G1 X86 Y123.046 E9.1153
G1 X85.793 Y122.731 E9.12784
G1 X85.295 Y121.893 E9.16026
G1 X85.034 Y121.403 E9.17873
G1 X84.599 Y120.482 E9.2126
G1 X84.443 Y120.106 E9.22614
G1 X84.099 Y119.15 E9.25994
G1 X83.951 Y118.667 E9.27674
G1 X83.714 Y117.748 E9.3083
G1 X83.625 Y117.326 E9.32265
G1 X83.465 Y116.335 E9.35604
G1 X83.408 Y115.833 E9.37284
G1 X83.342 Y114.852 E9.40554
G1 X83.333 Y114.408 E9.42031
G1 X83.361 Y113.396 E9.45398
G1 X83.396 Y112.932 E9.46946
G1 X83.518 Y111.942 E9.50264
G1 X83.603 Y111.445 E9.51941
G1 X83.818 Y110.467 E9.55271
G1 X83.925 Y110.071 E9.56636
G1 X84.225 Y109.134 E9.59908
G1 X84.408 Y108.643 E9.61651
G1 X84.797 Y107.732 E9.64945
G1 X84.986 Y107.341 E9.6639
G1 X85.462 Y106.465 E9.69706
G1 X85.715 Y106.047 E9.71331
G1 X86.257 Y105.237 E9.74573
G1 X86.52 Y104.881 E9.76045
G1 X87.185 Y104.069 E9.79535
G1 X87.507 Y103.713 E9.81132
G1 X88.186 Y103.028 E9.8434
G1 X88.516 Y102.724 E9.85832
G0 F6000 X88.787 Y103.018
G1 F1200 X89.517 Y102.406 E9.89001
G1 X89.941 Y102.083 E9.90773
G1 X90.728 Y101.54 E9.93954
G1 X91.041 Y101.345 E9.9518
G1 X91.873 Y100.879 E9.98352
G1 X92.391 Y100.62 E10.00278
G1 X93.249 Y100.239 E10.03401
G1 X93.58 Y100.11 E10.04582
G1 X94.507 Y99.799 E10.07834
G1 X95.129 Y99.623 E10.09984
G1 X95.595 Y99.503 E10.11585
G1 X96.042 Y99.399 E10.13111
G1 X106.342 Y97.205 E10.48138
G1 X107.832 Y96.913 E10.53188
G1 X108.386 Y96.82 E10.55056
G1 X108.675 Y96.78 E10.56027
G1 X109.491 Y96.701 E10.58753
G1 X110.173 Y96.662 E10.61025
G1 X110.896 Y96.646 E10.63431
G1 X111.401 Y96.653 E10.6511
G1 X112.124 Y96.689 E10.67518
G1 X112.677 Y96.736 E10.69364
G1 X113.376 Y96.819 E10.71705
G1 X114.325 Y96.974 E10.74903
G1 X115.269 Y97.158 E10.78102
G1 X125.347 Y99.303 E11.12373
G1 X126.465 Y99.557 E11.16186
G1 X127.519 Y99.857 E11.19831
G1 X128.114 Y100.062 E11.21924
G1 X128.998 Y100.414 E11.25089
G1 X129.358 Y100.577 E11.26403
G1 X130.21 Y101.012 E11.29585
G1 X130.674 Y101.277 E11.31362
G1 X131.498 Y101.802 E11.34612
G1 X131.828 Y102.035 E11.35955
G1 X132.56 Y102.603 E11.39037
G1 X132.972 Y102.954 E11.40837
G1 X133.707 Y103.646 E11.44195
G1 X134.012 Y103.963 E11.45658
G1 X134.617 Y104.651 E11.48705
G1 X134.881 Y104.98 E11.50108
G1 X135.443 Y105.751 E11.53281
G1 X135.731 Y106.188 E11.55022
G1 X136.224 Y107.019 E11.58236
G1 X136.431 Y107.409 E11.59704
G1 X136.83 Y108.253 E11.62809
G1 X137.015 Y108.695 E11.64403
G1 X137.355 Y109.633 E11.67721
G1 X137.483 Y110.049 E11.69169
G1 X137.715 Y110.945 E11.72247
G1 X137.824 Y111.462 E11.74005
G1 X137.979 Y112.421 E11.77236
G1 X138.027 Y112.846 E11.78658
G1 X138.089 Y113.795 E11.81821
G1 X138.098 Y114.264 E11.83382
G1 X138.07 Y115.236 E11.86616
G1 X138.033 Y115.721 E11.88234
G1 X137.922 Y116.637 E11.91303
G1 X137.85 Y117.065 E11.92746
G1 X137.639 Y118.031 E11.96035
G1 X137.507 Y118.52 E11.97719
G1 X137.213 Y119.434 E12.00913
G1 X137.05 Y119.87 E12.02461
G1 X136.68 Y120.736 E12.05593
G1 X136.492 Y121.125 E12.0703
G1 X136.036 Y121.965 E12.10209
G1 X135.779 Y122.39 E12.11861
G1 X135.243 Y123.19 E12.15064
G1 X134.967 Y123.562 E12.16604
G1 X134.345 Y124.321 E12.19868
G1 X134.028 Y124.672 E12.21441
G1 X133.374 Y125.333 E12.24534
G1 X133.052 Y125.63 E12.25991
G1 X132.319 Y126.244 E12.29171
G1 X131.911 Y126.555 E12.30878
G1 X131.126 Y127.098 E12.34052
G1 X130.746 Y127.335 E12.35542
G1 X129.91 Y127.803 E12.38728
G1 X129.522 Y127.997 E12.40171
G1 X128.671 Y128.375 E12.43268
G1 X128.182 Y128.566 E12.45014
G1 X127.222 Y128.887 E12.48381
G1 X126.359 Y129.12 E12.51354
G1 X125.834 Y129.244 E12.53149
G1 X115.274 Y131.493 E12.89059
G1 X113.996 Y131.741 E12.93389
G1 X113.236 Y131.863 E12.95949
G1 X112.403 Y131.947 E12.98734
G1 X111.559 Y131.998 E13.01546
G1 X110.782 Y132.02 E13.04131
G1 X109.886 Y131.98 E13.07114
G1 X109.195 Y131.922 E13.09421
G1 X108.498 Y131.84 E13.11755
G1 X107.519 Y131.681 E13.15054
G1 X106.528 Y131.488 E13.18412
G1 X96.289 Y129.307 E13.53231
G1 X95.493 Y129.126 E13.55946
G1 X94.809 Y128.948 E13.58297
G1 X94.227 Y128.767 E13.60324
G1 X93.758 Y128.606 E13.61973
G1 X92.858 Y128.249 E13.65193
G1 X92.439 Y128.059 E13.66724
G1 X91.567 Y127.611 E13.69984
G1 X91.127 Y127.358 E13.71672
G1 X90.332 Y126.851 E13.74809
G1 X89.996 Y126.614 E13.76176
G1 X89.265 Y126.047 E13.79253
G1 X88.896 Y125.733 E13.80865
G1 X88.175 Y125.057 E13.84152
G1 X87.849 Y124.72 E13.85711
G1 X87.211 Y123.995 E13.88923
G1 X86.889 Y123.592 E13.90639
G1 X86.334 Y122.827 E13.93783
G1 X86.127 Y122.512 E13.95036
G1 X85.648 Y121.705 E13.98158
G1 X85.387 Y121.215 E14.00004
G1 X84.969 Y120.329 E14.03262
G1 X84.813 Y119.953 E14.04616
G1 X84.482 Y119.032 E14.07871
G1 X84.334 Y118.549 E14.09552
G1 X84.106 Y117.666 E14.12585
G1 X84.017 Y117.244 E14.14019
G1 X83.862 Y116.29 E14.17234
G1 X83.805 Y115.788 E14.18914
G1 X83.742 Y114.844 E14.22061
G1 X83.733 Y114.4 E14.23538
G1 X83.76 Y113.426 E14.26779
G1 X83.795 Y112.962 E14.28327
G1 X83.912 Y112.009 E14.3152
G1 X83.997 Y111.512 E14.33197
G1 X84.204 Y110.571 E14.36402
G1 X84.311 Y110.175 E14.37766
G1 X84.6 Y109.274 E14.40913
G1 X84.783 Y108.783 E14.42656
G1 X85.158 Y107.906 E14.45828
G1 X85.347 Y107.515 E14.47273
G1 X85.804 Y106.672 E14.50462
G1 X86.057 Y106.254 E14.52087
G1 X86.579 Y105.475 E14.55206
G1 X86.842 Y105.119 E14.56678
G1 X87.481 Y104.338 E14.60034
G1 X87.803 Y103.982 E14.61631
G1 X88.457 Y103.322 E14.64721
G1 X88.787 Y103.018 E14.66214
G1 F2700 E9.66214
;MESH:Attachment_v2.3mf(1)
G0 F6000 X108.858 Y106.418
G0 X110.831 Y114.538
;TYPE:WALL-INNER
G1 F2700 E14.66214
G1 F1162.2 X110.993 Y114.53 E14.66771
G1 X111.093 Y114.456 E14.67198
G1 X111.129 Y114.292 E14.67775
G1 X111.085 Y114.183 E14.68178
G1 X110.923 Y114.114 E14.68783
G1 X110.765 Y114.168 E14.69356
G1 X110.709 Y114.273 E14.69765
G1 X110.708 Y114.38 E14.70132
G1 X110.831 Y114.538 E14.7082
G0 F6000 X111.454 Y114.663
;TYPE:WALL-OUTER
G1 F1200 X111.548 Y114.366 E14.71856
G1 X111.533 Y114.242 E14.72272
G1 X111.519 Y114.135 E14.7263
G1 X111.406 Y113.924 E14.73427
G1 X111.239 Y113.781 E14.74158
G1 X110.935 Y113.696 E14.75208
G1 X110.631 Y113.761 E14.76242
G1 X110.449 Y113.898 E14.76999
G1 X110.303 Y114.172 E14.78032
G1 X110.302 Y114.481 E14.7906
G1 X110.449 Y114.755 E14.80094
G1 X110.639 Y114.899 E14.80887
G1 X110.77 Y114.945 E14.81349
G1 X111.093 Y114.934 E14.82424
G1 X111.303 Y114.831 E14.83202
G1 X111.454 Y114.663 E14.83953
G1 F2700 E9.83953
;MESH:Attachment_v2.3mf
G0 F6000 X110.934 Y114.354
G0 X110.805 Y114.725
G0 X109.655 Y120.921
G0 X109.953 Y121.158
;TYPE:WALL-INNER
G1 F2700 E14.83953
G1 F1200 X110.432 Y121.209 E14.85555
G1 X110.913 Y121.226 E14.87156
G1 X111.387 Y121.209 E14.88733
G1 X111.866 Y121.159 E14.90335
G1 X112.354 Y121.073 E14.91983
G1 X122.643 Y118.882 E15.26972
G1 F1237.1 X123.742 Y118.676 E15.30579
G1 F1322.3 X124.233 Y118.548 E15.32111
G1 F1367.5 X124.628 Y118.405 E15.33337
G1 F1371.4 X125.01 Y118.223 E15.34568
G1 F1375.4 X125.367 Y118.008 E15.35778
G1 F1367.5 X125.703 Y117.761 E15.36995
G1 F1363.6 X126.007 Y117.488 E15.38191
G1 X126.293 Y117.181 E15.39419
G1 F1367.5 X126.546 Y116.853 E15.40628
G1 F1371.4 X126.768 Y116.502 E15.41836
G1 X126.953 Y116.133 E15.43038
G1 X127.107 Y115.734 E15.44282
G1 X127.217 Y115.354 E15.45434
G1 F1367.5 X127.296 Y114.937 E15.46672
G1 F1371.4 X127.335 Y114.533 E15.47854
G1 F1375.4 X127.335 Y114.126 E15.49035
G1 F1367.5 X127.295 Y113.706 E15.50266
G1 F1363.6 X127.215 Y113.291 E15.51503
G1 F1367.5 X127.103 Y112.906 E15.52673
G1 X126.947 Y112.506 E15.53926
G1 F1371.4 X126.758 Y112.135 E15.55138
G1 X126.542 Y111.793 E15.56315
G1 F1367.5 X126.28 Y111.459 E15.57554
G1 F1363.6 X125.997 Y111.155 E15.5877
G1 X125.687 Y110.879 E15.59985
G1 F1371.4 X125.383 Y110.655 E15.61084
G1 F1379.3 X124.996 Y110.423 E15.62389
